X:1
T:Title
%%score { ( 1 3 ) | 2 }
L:1/8
M:3/4
K:C
V:1 treble nm="Grand Piano"
V:3 treble 
V:2 bass 
V:1
 z2 z[Q:1/4=94] [EG] [_E^F][=EG] | [Ec]3 [EG] [DF]E | F4 F2 | [DB]3 [FA] [EG][DF] |[M:3/8] [CE]3 | %5
 [EG][_E^F][=EG] |[M:3/4] [Ec]3 [GB] [Gd][Gc] | [GB]4 A2 | G3 F ED |[M:2/4] E4 | %10
[M:4/4][Q:1/4=108] [EG]2 [Ge]6 | z8 | z2 G6- | G8 | [CEG]2 [CFA]4 [D^Fc]2- | [DFc]2 [DGB]6 | %16
 [Gf]2 [Ge]6 | [Ec]2 [EG]2 E2 D2 | C2 F6 | A2 G6 | E2 [B,E]6 |[M:5/8] [B,D]2 C3- | C2 z z2 |] %23
V:2
 z2 z [C,C] [C,A,][C,G,] | [C,G,]3 [C,G,] [C,G,][C,G,C] | [D,G,B,]4 [D,G,B,]2 | %3
 [G,,G,]3 [G,,G,] [G,,G,][G,,G,] |[M:3/8] [C,G,]3 | [C,C][C,A,][C,G,] | %6
[M:3/4] [C,G,]3 [E,G,] [E,G,][E,C] | [F,C]4 [F,CF]2 | [G,CE]3 [G,D] [G,C][G,B,] |[M:2/4] [C,G,C]4 | %10
[M:4/4] [C,C]2 [C,C]6 | [C,G,]2 [C,G,][C,G,]- [C,G,]2 C,C,- | C,2 C,2 E,2 D,2 | G,2 C,6 | %14
 C,2 F,4 D,2- | D,2 G,6 | [G,B,]2 [C,C]6 | [C,G,]2 [C,C]2 [C,G,C]2 [D,G,B,]2 | [E,G,]2 [F,A,C]6 | %19
 [F,CF]2 [G,CE]6 | [G,C]2 [G,,G,]6 |[M:5/8] [G,,F,]2 [C,E,]3- | [C,E,]2 z z2 |] %23
V:3
 x6 | x6 | x6 | x6 |[M:3/8] x3 | x3 |[M:3/4] x6 | x6 | x6 |[M:2/4] x4 |[M:4/4] x8 | %11
 [Ec]2 [Ec][Ec]- [Ec]2 [A,FA][A,FA]- | [A,FA]2 [CE]4 [B,F]2- | [B,F]2 [CE]6 | x8 | x8 | x8 | x8 | %18
 x8 | x8 | x8 |[M:5/8] x5 | x5 |] %23

